tools/download-figma-icons/icons/solid/double-person.svg

<svg width="24" height="24" viewBox="0 0 24 24" fill="none" xmlns="http://www.w3.org/2000/svg">
<path d="M12 0C10.3425 0 9 1.3425 9 3C9 4.6575 10.3425 6 12 6C13.6575 6 15 4.6575 15 3C15 1.3425 13.6575 0 12 0Z" fill="black"/>
<path d="M11.25 8.25V6.75H8.1C6.9375 6.75 6 7.6875 6 8.85V15.9C6 17.04 6.915 17.9775 8.0475 18L8.64 22.6875C8.73 23.4375 9.3675 24 10.125 24H11.25V8.25Z" fill="black"/>
<path d="M18.7125 17.6625L16.5975 8.49C16.3575 7.47 15.4575 6.75 14.4075 6.75H12.75V24H13.875C14.6325 24 15.2775 23.43 15.3675 22.6725L15.735 19.5H17.25C17.7075 19.5 18.1425 19.29 18.4275 18.9375C18.705 18.5775 18.8175 18.105 18.7125 17.6625Z" fill="black"/>
</svg>

<svg xmlns="http://www.w3.org/2000/svg" width="24" height="24" fill="none" viewBox="0 0 24 24"><path fill="currentColor" d="M12 0a3 3 0 1 0 0 6 3 3 0 1 0 0-6m-.75 8.25v-1.5H8.1c-1.162 0-2.1.938-2.1 2.1v7.05A2.1 2.1 0 0 0 8.047 18l.593 4.688c.09.75.727 1.312 1.485 1.312h1.125zm7.463 9.413L16.597 8.49a2.246 2.246 0 0 0-2.19-1.74H12.75V24h1.125c.758 0 1.402-.57 1.492-1.328l.368-3.172h1.515c.457 0 .892-.21 1.177-.562.278-.36.39-.833.285-1.275"/></svg>
